X: 2036
T: Finch in the Thistles
R: reel
C: Rick Gagne
N: 1988 on tenor banjo and whistle
M: 4/4
Q: 1/4=175
K: D
"D"f2fg fedc | "G"BcdB "D"A2FA | "Bm"f2fg fedc | "G"BcdB "A"e2de | 
"D"f2fg fedc | "G"BcdB "D"A2FA | "G"gdBd "Em"gdBd | "A"aece aece :|
"G"bg~g2 agfg | "Em"egfg edce | "D"dA~A2 BAFE | "Bm"FA~A2 BAFA | 
"Em"bg~g2 "G"agfg | "A"egfg edce | "D"dA~A2 "G"BGge |1 "A"dcBA "D"d2fa :|\
[2 "A"dcBA "D"d2de ||
